packages/eui/src/components/icon/svgs/product_streams_wired.svg

<svg width="16" height="16" viewBox="0 0 16 16" fill="none" xmlns="http://www.w3.org/2000/svg">
<path fill-rule="evenodd" clip-rule="evenodd" d="M13.5 1C13.775 0.999778 14.0449 1.07519 14.2799 1.21798C14.515 1.36077 14.7063 1.56545 14.8329 1.80964C14.9595 2.05383 15.0165 2.32812 14.9977 2.60253C14.9789 2.87693 14.885 3.14089 14.7263 3.36553C14.5676 3.59017 14.3502 3.76685 14.0978 3.87625C13.8455 3.98565 13.5679 4.02355 13.2954 3.98582C13.023 3.94809 12.7661 3.83617 12.553 3.6623C12.3399 3.48844 12.1787 3.25932 12.087 3H11.5C11.1022 3 10.7206 3.15804 10.4393 3.43934C10.158 3.72064 9.99999 4.10218 9.99999 4.5V6C9.99956 6.5415 9.82263 7.0681 9.49599 7.5H9.49999L9.45199 7.56C9.34668 7.69119 9.22878 7.81176 9.09999 7.92C9.08999 7.93 9.07899 7.937 9.06799 7.945C9.02196 7.98268 8.9746 8.0187 8.92599 8.053L8.88299 8.083C8.82799 8.119 8.77299 8.153 8.71499 8.186L8.66799 8.21C8.61099 8.24 8.55299 8.27 8.49299 8.295C8.47499 8.303 8.45699 8.309 8.43799 8.316C8.14025 8.4377 7.82165 8.5002 7.49999 8.5H6.99599C7.31099 8.918 7.49999 9.436 7.49999 10V11.5C7.49999 11.8978 7.65803 12.2794 7.93933 12.5607C8.22064 12.842 8.60217 13 8.99999 13H12.087C12.2049 12.6664 12.437 12.3852 12.7422 12.2062C13.0474 12.0271 13.4061 11.9618 13.7549 12.0216C14.1036 12.0814 14.42 12.2626 14.648 12.5332C14.8761 12.8037 15.0012 13.1462 15.0012 13.5C15.0012 13.8538 14.8761 14.1963 14.648 14.4668C14.42 14.7374 14.1036 14.9186 13.7549 14.9784C13.4061 15.0382 13.0474 14.9729 12.7422 14.7938C12.437 14.6148 12.2049 14.3336 12.087 14H8.99999C8.33695 14 7.70107 13.7366 7.23223 13.2678C6.76338 12.7989 6.49999 12.163 6.49999 11.5V10C6.49999 9.60218 6.34196 9.22064 6.06065 8.93934C5.77935 8.65804 5.39782 8.5 4.99999 8.5H3.91299C3.79505 8.83361 3.56296 9.11478 3.25775 9.29382C2.95255 9.47286 2.59387 9.53823 2.24513 9.4784C1.89638 9.41856 1.58001 9.23737 1.35194 8.96683C1.12387 8.6963 0.998779 8.35384 0.998779 8C0.998779 7.64616 1.12387 7.30371 1.35194 7.03317C1.58001 6.76264 1.89638 6.58144 2.24513 6.5216C2.59387 6.46177 2.95255 6.52715 3.25775 6.70618C3.56296 6.88522 3.79505 7.16639 3.91299 7.5H7.49999C7.89782 7.5 8.27935 7.34197 8.56065 7.06066C8.84196 6.77936 8.99999 6.39783 8.99999 6V4.5C8.99999 3.83696 9.26338 3.20107 9.73223 2.73223C10.2011 2.26339 10.837 2 11.5 2H12.087C12.1903 1.70774 12.3817 1.45468 12.6347 1.27561C12.8877 1.09653 13.19 1.00025 13.5 1ZM13.5 13C13.3674 13 13.2402 13.0527 13.1464 13.1464C13.0527 13.2402 13 13.3674 13 13.5C13 13.6326 13.0527 13.7598 13.1464 13.8536C13.2402 13.9473 13.3674 14 13.5 14C13.6326 14 13.7598 13.9473 13.8535 13.8536C13.9473 13.7598 14 13.6326 14 13.5C14 13.3674 13.9473 13.2402 13.8535 13.1464C13.7598 13.0527 13.6326 13 13.5 13ZM2.49999 7.5C2.36738 7.5 2.24021 7.55268 2.14644 7.64645C2.05267 7.74022 1.99999 7.86739 1.99999 8C1.99999 8.13261 2.05267 8.25979 2.14644 8.35355C2.24021 8.44732 2.36738 8.5 2.49999 8.5C2.6326 8.5 2.75978 8.44732 2.85355 8.35355C2.94731 8.25979 2.99999 8.13261 2.99999 8C2.99999 7.86739 2.94731 7.74022 2.85355 7.64645C2.75978 7.55268 2.6326 7.5 2.49999 7.5ZM13.5 2C13.3674 2 13.2402 2.05268 13.1464 2.14645C13.0527 2.24022 13 2.36739 13 2.5C13 2.63261 13.0527 2.75979 13.1464 2.85355C13.2402 2.94732 13.3674 3 13.5 3C13.6326 3 13.7598 2.94732 13.8535 2.85355C13.9473 2.75979 14 2.63261 14 2.5C14 2.36739 13.9473 2.24022 13.8535 2.14645C13.7598 2.05268 13.6326 2 13.5 2Z" />
<path fill-rule="evenodd" clip-rule="evenodd" d="M13.5 6.5C13.775 6.49978 14.0449 6.57519 14.2799 6.71798C14.515 6.86077 14.7063 7.06545 14.8329 7.30964C14.9595 7.55383 15.0165 7.82812 14.9977 8.10253C14.9789 8.37693 14.885 8.64089 14.7263 8.86553C14.5676 9.09017 14.3502 9.26685 14.0978 9.37625C13.8455 9.48565 13.5679 9.52355 13.2954 9.48582C13.023 9.44809 12.7661 9.33617 12.553 9.1623C12.3399 8.98844 12.1787 8.75932 12.087 8.5H9.94799C10.241 8.213 10.484 7.875 10.662 7.5H12.087C12.1903 7.20774 12.3817 6.95468 12.6347 6.77561C12.8877 6.59653 13.19 6.50025 13.5 6.5ZM13.5 7.5C13.3674 7.5 13.2402 7.55268 13.1464 7.64645C13.0527 7.74022 13 7.86739 13 8C13 8.13261 13.0527 8.25979 13.1464 8.35355C13.2402 8.44732 13.3674 8.5 13.5 8.5C13.6326 8.5 13.7598 8.44732 13.8535 8.35355C13.9473 8.25979 14 8.13261 14 8C14 7.86739 13.9473 7.74022 13.8535 7.64645C13.7598 7.55268 13.6326 7.5 13.5 7.5Z" />
</svg>

<svg xmlns="http://www.w3.org/2000/svg" width="16" height="16" viewBox="0 0 16 16">
  <path fill-rule="evenodd" d="M13.5 1a1.501 1.501 0 0 1 1.227 2.365A1.501 1.501 0 0 1 12.087 3H11.5A1.5 1.5 0 0 0 10 4.5V6a2.49 2.49 0 0 1-.504 1.5H9.5l-.048.06a2.583 2.583 0 0 1-.351.36c-.01.01-.022.017-.033.025a2.498 2.498 0 0 1-.142.108l-.043.03c-.055.036-.11.07-.168.103l-.047.024c-.057.03-.115.06-.175.085-.018.008-.036.014-.055.021A2.477 2.477 0 0 1 7.5 8.5h-.504c.315.418.504.936.504 1.5v1.5A1.5 1.5 0 0 0 9 13h3.087a1.5 1.5 0 1 1 0 1H9a2.5 2.5 0 0 1-2.5-2.5V10A1.5 1.5 0 0 0 5 8.5H3.913a1.5 1.5 0 1 1 0-1H7.5A1.5 1.5 0 0 0 9 6V4.5A2.5 2.5 0 0 1 11.5 2h.587A1.5 1.5 0 0 1 13.5 1Zm0 12a.5.5 0 1 0 0 1.001.5.5 0 0 0 0-1.001Zm-11-5.5a.5.5 0 1 0 0 1.001.5.5 0 0 0 0-1.001Zm11-5.5a.5.5 0 1 0 0 1.001.5.5 0 0 0 0-1.001Z" clip-rule="evenodd"/>
  <path fill-rule="evenodd" d="M13.5 6.5a1.501 1.501 0 0 1 1.227 2.365 1.501 1.501 0 0 1-2.64-.365H9.948c.293-.287.536-.625.714-1h1.425a1.5 1.5 0 0 1 1.413-1Zm0 1a.5.5 0 1 0 0 1.001.5.5 0 0 0 0-1.001Z" clip-rule="evenodd"/>
</svg>
